X: 26499
T: Michael Kennedy's
R: reel
M: 4/4
K: Ddorian
|:ADDE FEDd-|dDDC DEFG|ADDE FEDc|-cAGE CDEG:|
|:d2dc AGFG|Addc (3ABA Gc|Adde dcAB|cAGE CDEG:|

